storage/app/icons/phosphoricons/bold/align-bottom-bold.svg

<svg xmlns="http://www.w3.org/2000/svg" fill="currentColor" viewBox="0 0 256 256"><path d="M228 216a12 12 0 0 1-12 12H40a12 12 0 0 1 0-24h176a12 12 0 0 1 12 12m-92-48V80a20 20 0 0 1 20-20h36a20 20 0 0 1 20 20v88a20 20 0 0 1-20 20h-36a20 20 0 0 1-20-20m24-4h28V84h-28Zm-116 4V40a20 20 0 0 1 20-20h36a20 20 0 0 1 20 20v128a20 20 0 0 1-20 20H64a20 20 0 0 1-20-20m24-4h28V44H68Z"/></svg>

<svg xmlns="http://www.w3.org/2000/svg" viewBox="0 0 256 256" fill="currentColor"><path d="M228,216a12,12,0,0,1-12,12H40a12,12,0,0,1,0-24H216A12,12,0,0,1,228,216Zm-92-48V80a20,20,0,0,1,20-20h36a20,20,0,0,1,20,20v88a20,20,0,0,1-20,20H156A20,20,0,0,1,136,168Zm24-4h28V84H160ZM44,168V40A20,20,0,0,1,64,20h36a20,20,0,0,1,20,20V168a20,20,0,0,1-20,20H64A20,20,0,0,1,44,168Zm24-4H96V44H68Z"/></svg>
